lib/preview_tmp/nrk-logo-preview-nrk-sport-with-bg.svg

<svg width="108" height="28" viewBox="0 0 108 28" fill="none" xmlns="http://www.w3.org/2000/svg">
<rect width="107.667" height="28" fill="#E81502"/>
<path d="M6.66663 21V7.00123H11.26V21H6.66663ZM17.5094 9.2292L20.151 21H15.124L11.9697 7.00123H14.7892C15.4357 6.99284 16.063 7.22075 16.5535 7.64208C17.0449 8.04574 17.3824 8.60611 17.5094 9.2292ZM20.8411 21V7.00123H25.4345V21H20.8411ZM28.9038 12.3247C28.4089 12.3296 27.9218 12.2001 27.4946 11.9501C27.073 11.7064 26.7229 11.3562 26.4793 10.9347C26.229 10.5073 26.0995 10.0202 26.1044 9.525C26.0988 9.03283 26.2284 8.54857 26.4793 8.12512C26.7255 7.70811 27.0752 7.36174 27.4946 7.11957C27.922 6.86988 28.4089 6.74039 28.9038 6.74491C29.3959 6.73961 29.8799 6.86921 30.3035 7.11957C30.7187 7.36386 31.0647 7.70995 31.309 8.12512C31.5596 8.54869 31.6892 9.03287 31.6838 9.525C31.6884 10.0201 31.5589 10.5072 31.309 10.9347C31.0673 11.3544 30.7209 11.7043 30.3035 11.9501C29.8799 12.2009 29.3955 12.3306 28.9032 12.3247H28.9038ZM32.3935 21V7.00123H36.9873V21H32.3935ZM42.8027 14.6512C42.8156 14.6648 42.9141 14.8258 43.0983 15.1343C43.2826 15.4427 43.5224 15.8371 43.8179 16.3173C44.1136 16.7973 44.4257 17.3066 44.754 17.8453C45.0824 18.384 45.3913 18.8934 45.6809 19.3734C45.9694 19.8534 46.298 20.3955 46.6666 21H41.6198C41.3041 20.4873 41.0181 20.024 40.7618 19.61C40.5056 19.1959 40.2331 18.749 39.9444 18.2692C39.6551 17.7899 39.369 17.3233 39.0862 16.8693C38.8034 16.4154 38.5604 16.0178 38.3571 15.6765C38.153 15.335 38.0116 15.1049 37.9329 14.9864C37.7379 14.6923 37.6225 14.3526 37.5981 14.0006C37.6176 13.6627 37.7263 13.3361 37.9132 13.0539C37.992 12.9225 38.1366 12.6891 38.3469 12.3539C38.5572 12.0188 38.8036 11.6212 39.0862 11.1611C39.3688 10.7011 39.6549 10.2312 39.9444 9.7514C40.234 9.27163 40.5064 8.8214 40.7618 8.40078C41.0186 7.9806 41.3046 7.51398 41.6198 7.00091H46.6666L42.7629 13.3694C42.6421 13.5585 42.574 13.7764 42.5657 14.0006C42.5787 14.236 42.6609 14.4623 42.8019 14.6512H42.8027Z" fill="white"/>
<path d="M60.5935 14.4485C60.3063 14.1559 59.973 13.9126 59.6068 13.7283C59.2231 13.534 58.8238 13.3723 58.4131 13.2448C57.9921 13.1133 57.558 13.0014 57.1107 12.9091C56.7683 12.8303 56.4492 12.7515 56.1537 12.6726C55.882 12.6024 55.6178 12.5065 55.3644 12.3862C55.1466 12.283 54.9441 12.1502 54.7628 11.9915C54.5921 11.841 54.46 11.6516 54.3778 11.4393C54.287 11.1896 54.2436 10.9252 54.2499 10.6596C54.2455 10.3845 54.2887 10.1108 54.3778 9.85054C54.4588 9.62099 54.5942 9.41446 54.7724 9.24867C54.9571 9.07956 55.1668 8.93994 55.394 8.83465C55.6539 8.71614 55.9298 8.63633 56.2129 8.59783C56.5495 8.54985 56.8891 8.52678 57.2291 8.52877C57.5389 8.52938 57.8484 8.54575 58.1565 8.57779C58.4681 8.61033 58.7778 8.65982 59.084 8.72609C59.3814 8.7906 59.6746 8.87297 59.962 8.97275C60.2312 9.06532 60.4919 9.18076 60.7414 9.31776L61.0177 7.58161C60.7371 7.43522 60.4431 7.31629 60.1397 7.22644C59.8305 7.13458 59.518 7.05551 59.2023 6.9893C58.8828 6.92327 58.5601 6.87399 58.2355 6.84164C57.9066 6.80876 57.5711 6.7923 57.2291 6.7923C56.5313 6.78472 55.8353 6.86415 55.1572 7.02876C54.5797 7.16824 54.034 7.41613 53.549 7.75922C53.1022 8.07977 52.7427 8.50699 52.5032 9.00201C52.2478 9.55843 52.1229 10.1659 52.1381 10.7779C52.1268 11.2516 52.2037 11.7232 52.365 12.1688C52.5066 12.5423 52.7251 12.8819 53.0064 13.1656C53.2845 13.4432 53.6039 13.6762 53.9532 13.8562C54.3237 14.0471 54.71 14.2057 55.1079 14.3301C55.5222 14.4617 55.9465 14.5735 56.3806 14.6656C56.7358 14.7443 57.0647 14.8265 57.3673 14.9123C57.6487 14.9898 57.9228 15.0921 58.1862 15.2181C58.4126 15.3249 58.622 15.4646 58.8077 15.6325C58.984 15.798 59.122 16.0001 59.2122 16.2245C59.3167 16.4948 59.367 16.7831 59.3602 17.0729C59.3654 17.3811 59.3187 17.688 59.2221 17.9806C59.1355 18.2338 59.0016 18.4682 58.8274 18.6713C58.6524 18.8714 58.4372 19.0327 58.196 19.1445C57.9232 19.2701 57.6342 19.3566 57.3373 19.4014C56.9751 19.457 56.6089 19.4834 56.2425 19.4803C55.8862 19.4794 55.5303 19.4563 55.1769 19.4112C54.8086 19.3652 54.4403 19.3026 54.0719 19.2235C53.7089 19.1462 53.35 19.0507 52.9965 18.9374C52.6479 18.8262 52.3157 18.7112 52 18.5923L52.2565 20.5459C52.5929 20.6714 52.9353 20.78 53.2826 20.8711C53.5978 20.9539 53.9174 21.0198 54.2397 21.0685C54.5484 21.1143 54.8574 21.1504 55.167 21.177C55.4766 21.2035 55.789 21.2167 56.104 21.2164C56.8105 21.2208 57.5152 21.1481 58.2058 20.9994C58.8172 20.8712 59.3994 20.6303 59.9225 20.289C60.4107 19.9659 60.8055 19.5202 61.0671 18.9965C61.3554 18.3763 61.494 17.697 61.4716 17.0134C61.4823 16.5041 61.4055 15.9968 61.2446 15.5134C61.107 15.1156 60.8849 14.7523 60.5935 14.4485Z" fill="white"/>
<path d="M71.4464 11.3407C70.7382 10.9071 69.9183 10.6909 69.0884 10.7191C68.5958 10.7215 68.1054 10.7843 67.6282 10.9062C67.1124 11.0375 66.6152 11.2332 66.1482 11.4886C66.0555 11.5386 65.9634 11.5949 65.872 11.6511V10.7388L63.8593 11.0545V25.1432H65.872V20.7254C65.8854 20.731 65.898 20.7373 65.9115 20.7432C66.2761 20.8945 66.6567 21.0037 67.0461 21.0688C67.5057 21.1446 67.971 21.1809 68.4369 21.1773C69.3254 21.1926 70.2015 20.9675 70.9725 20.5258C71.7297 20.0771 72.3452 19.4241 72.7484 18.6417C73.2144 17.7088 73.4415 16.6748 73.4094 15.6325C73.428 14.7511 73.2563 13.8762 72.9059 13.0672C72.5975 12.3621 72.0903 11.7622 71.4464 11.3407ZM70.9235 17.9412C70.6865 18.4651 70.2891 18.9003 69.7888 19.184C69.2327 19.4754 68.6108 19.6182 67.9833 19.5987C67.6827 19.5989 67.3825 19.5757 67.0855 19.5293C66.7738 19.4796 66.4669 19.4039 66.1679 19.3027C66.0732 19.2698 65.9706 19.2323 65.872 19.1962V12.9689C65.8979 12.9567 65.9249 12.9409 65.9509 12.9291C66.2401 12.7976 66.5097 12.6856 66.7599 12.5933C66.9966 12.5049 67.241 12.4389 67.49 12.396C67.7116 12.3578 67.936 12.338 68.1609 12.3368C68.7691 12.3166 69.3728 12.4489 69.9168 12.7216C70.3926 12.9806 70.7652 13.3948 70.9725 13.8953C71.2234 14.5358 71.3409 15.2206 71.3178 15.9081C71.3388 16.6066 71.2041 17.3011 70.9235 17.9412Z" fill="white"/>
<path d="M83.0293 11.3504C82.2072 10.9135 81.2863 10.6961 80.3556 10.719C79.4162 10.6975 78.4876 10.922 77.6618 11.3702C76.8995 11.7968 76.276 12.4338 75.8661 13.2053C75.4208 14.0706 75.2003 15.0341 75.2248 16.007C75.1996 16.9724 75.406 17.9298 75.8267 18.7991C76.2047 19.558 76.8076 20.1818 77.5533 20.5853C78.3559 21.0057 79.252 21.216 80.1579 21.1967C81.1063 21.2155 82.0437 20.9914 82.881 20.5458C83.6629 20.1193 84.304 19.4748 84.7264 18.6906C85.1845 17.8151 85.412 16.8373 85.3874 15.8495C85.4098 14.9085 85.1995 13.9765 84.7753 13.1362C84.3822 12.3818 83.7747 11.7604 83.0293 11.3504ZM82.9106 17.9609C82.6889 18.4735 82.3132 18.9045 81.8355 19.1941C81.3554 19.4689 80.81 19.6086 80.2569 19.5986C79.7145 19.6121 79.1798 19.4681 78.7175 19.1839C78.2602 18.8801 77.9031 18.4477 77.6914 17.9411C77.4228 17.2912 77.295 16.5918 77.3165 15.8889C77.2932 15.205 77.4211 14.5243 77.6914 13.8956C77.9128 13.4014 78.2816 12.9879 78.7474 12.7117C79.2451 12.4375 79.807 12.3013 80.375 12.317C80.8185 12.3059 81.2592 12.39 81.6675 12.5637C82.0251 12.7251 82.337 12.9727 82.5755 13.2842C82.8298 13.6227 83.0141 14.0084 83.1178 14.4189C83.2411 14.899 83.3008 15.3932 83.2954 15.8889C83.3184 16.5993 83.1874 17.3062 82.9106 17.9609Z" fill="white"/>
<path d="M91.9577 10.8667C91.5887 10.9659 91.2363 11.1188 90.9118 11.3206C90.5753 11.5308 90.2642 11.7791 89.9844 12.0605C89.9377 12.1072 89.8926 12.1592 89.8463 12.2082V10.7388L87.8336 11.0348V20.9997H89.8463V13.5447C89.9958 13.4402 90.1506 13.3434 90.31 13.2547C90.5074 13.1457 90.7118 13.0501 90.922 12.9685C91.1257 12.8896 91.3328 12.8205 91.5433 12.7613C91.7599 12.701 91.9809 12.658 92.2044 12.6328C92.4435 12.6065 92.6844 12.6 92.9246 12.6134L93.1614 10.7582C92.7569 10.7294 92.3505 10.7661 91.9577 10.8667Z" fill="white"/>
<path d="M100.522 19.3521C100.429 19.3718 100.327 19.3912 100.215 19.4112L99.8803 19.4701C99.7726 19.4896 99.6639 19.5029 99.5547 19.5099C99.449 19.5165 99.3504 19.5198 99.2587 19.5198C98.9564 19.5279 98.6561 19.4671 98.3806 19.3422C98.1439 19.2298 97.9475 19.0472 97.8182 18.8193C97.68 18.5618 97.612 18.2724 97.6209 17.9803V12.5147H100.403L100.62 10.9361H97.6209V7.81871L95.6082 8.52909V10.9361H94.0888L93.8714 12.5147H95.6082V18.395C95.5992 18.7872 95.6593 19.178 95.7858 19.5494C95.8873 19.8431 96.0448 20.1143 96.2495 20.3482C96.437 20.5568 96.6654 20.7247 96.9204 20.8415C97.1812 20.9616 97.4563 21.0479 97.739 21.0984C98.0189 21.1499 98.3029 21.1764 98.5875 21.1773C98.798 21.1773 99.0052 21.1706 99.2094 21.1573C99.4135 21.1439 99.601 21.1242 99.7718 21.0984C99.9425 21.0717 100.104 21.0421 100.255 21.0092C100.407 20.9763 100.534 20.9474 100.64 20.9208L100.758 19.2826C100.682 19.3124 100.602 19.3356 100.522 19.3521Z" fill="white"/>
</svg>

<svg xmlns="http://www.w3.org/2000/svg" viewBox="0 0 108 28"><path fill="#E81502" d="M0 0h107.667v28H0z"/><path fill="#fff" d="M6.667 21V7.001h4.593V21H6.667ZM17.509 9.23 20.151 21h-5.027L11.97 7.001h2.82a2.655 2.655 0 0 1 1.764.641c.49.404.828.964.955 1.587ZM20.841 21V7.001h4.593V21h-4.593Zm8.063-8.675a2.779 2.779 0 0 1-2.425-1.39 2.736 2.736 0 0 1-.375-1.41 2.686 2.686 0 0 1 .375-1.4 2.812 2.812 0 0 1 3.825-1.005c.415.244.76.59 1.005 1.005.25.424.38.908.375 1.4.004.495-.125.982-.375 1.41a2.8 2.8 0 0 1-1.006 1.015c-.423.25-.908.38-1.4.375ZM32.394 21V7.001h4.593V21h-4.593Zm10.409-6.349c.013.014.111.175.295.483.185.309.424.703.72 1.183a373.133 373.133 0 0 1 1.863 3.056c.288.48.617 1.022.986 1.627H41.62l-.858-1.39a127.3 127.3 0 0 1-.818-1.34c-.289-.48-.575-.947-.858-1.4a71.148 71.148 0 0 1-.729-1.194 20.758 20.758 0 0 0-.424-.69 2.04 2.04 0 0 1-.335-.985c.02-.338.128-.665.315-.947.079-.132.224-.365.434-.7a206.222 206.222 0 0 0 1.598-2.602c.289-.48.561-.93.817-1.351L41.62 7h5.047l-3.904 6.368c-.12.19-.189.407-.197.632.013.235.095.461.236.65ZM60.593 14.448a3.736 3.736 0 0 0-.986-.72 7.687 7.687 0 0 0-1.194-.483 13.55 13.55 0 0 0-1.302-.336 28.51 28.51 0 0 1-.957-.236 4.416 4.416 0 0 1-.79-.287 2.61 2.61 0 0 1-.601-.394 1.42 1.42 0 0 1-.385-.553 2.133 2.133 0 0 1-.128-.78 2.38 2.38 0 0 1 .128-.808c.08-.23.216-.437.394-.602a2.44 2.44 0 0 1 .622-.414c.26-.119.536-.199.819-.237a6.914 6.914 0 0 1 1.016-.07c.31.001.62.018.928.05.311.032.62.082.927.148.297.065.59.147.878.247.27.092.53.208.78.345l.276-1.736a4.916 4.916 0 0 0-.878-.356c-.31-.091-.622-.17-.938-.237a9.366 9.366 0 0 0-.966-.147c-.33-.033-.665-.05-1.007-.05a8.396 8.396 0 0 0-2.072.237 4.692 4.692 0 0 0-1.608.73c-.447.32-.806.748-1.046 1.243a4.018 4.018 0 0 0-.365 1.776c-.011.474.066.945.227 1.39.142.374.36.714.641.998.279.277.598.51.947.69.37.191.757.35 1.155.474.414.132.839.243 1.273.336.355.078.684.16.986.246.282.078.556.18.82.306.226.107.435.247.62.415.177.165.315.367.405.591.105.27.155.56.148.849.005.308-.041.615-.138.908a2.11 2.11 0 0 1-.395.69c-.175.2-.39.362-.631.474a3.192 3.192 0 0 1-.859.256 6.835 6.835 0 0 1-1.095.08 8.59 8.59 0 0 1-1.065-.07 12.845 12.845 0 0 1-1.105-.188 11.094 11.094 0 0 1-1.076-.286c-.348-.11-.68-.226-.996-.345l.257 1.954c.336.125.678.234 1.026.325.315.083.634.149.957.198.308.045.617.081.927.108.31.026.622.04.937.04a9.697 9.697 0 0 0 2.102-.218 5.031 5.031 0 0 0 1.716-.71 3.34 3.34 0 0 0 1.145-1.293c.288-.62.427-1.299.405-1.983a4.453 4.453 0 0 0-.227-1.5 2.915 2.915 0 0 0-.651-1.065ZM71.446 11.34a4.24 4.24 0 0 0-2.358-.62 6.018 6.018 0 0 0-1.46.186 6.348 6.348 0 0 0-1.756.745v-.912l-2.013.316v14.088h2.013v-4.418l.04.018c.364.152.745.26 1.134.326.46.076.925.112 1.39.108a4.93 4.93 0 0 0 2.536-.651 4.684 4.684 0 0 0 1.776-1.884 6.3 6.3 0 0 0 .661-3.01 6.129 6.129 0 0 0-.503-2.565 3.96 3.96 0 0 0-1.46-1.726Zm-.522 6.601c-.238.524-.635.96-1.135 1.243a3.646 3.646 0 0 1-1.806.415 5.624 5.624 0 0 1-1.815-.296c-.095-.033-.197-.07-.296-.107V12.97c.026-.012.053-.028.079-.04.29-.131.559-.243.809-.336a4.054 4.054 0 0 1 1.4-.256 3.648 3.648 0 0 1 1.757.385c.476.259.848.673 1.055 1.173.251.64.369 1.326.346 2.013a4.711 4.711 0 0 1-.394 2.033ZM83.03 11.35a5.414 5.414 0 0 0-2.674-.631 5.389 5.389 0 0 0-2.694.651 4.549 4.549 0 0 0-1.796 1.835 5.804 5.804 0 0 0-.641 2.802 6.047 6.047 0 0 0 .602 2.792c.378.759.98 1.383 1.726 1.786.803.42 1.699.631 2.605.612a5.562 5.562 0 0 0 2.723-.651 4.596 4.596 0 0 0 1.845-1.855 5.816 5.816 0 0 0 .661-2.841 5.719 5.719 0 0 0-.612-2.714 4.313 4.313 0 0 0-1.746-1.786Zm-.12 6.61a2.692 2.692 0 0 1-1.075 1.234 3.066 3.066 0 0 1-1.578.405 2.806 2.806 0 0 1-1.54-.415 2.778 2.778 0 0 1-1.026-1.243 4.975 4.975 0 0 1-.374-2.052 4.646 4.646 0 0 1 .374-1.993c.222-.495.59-.908 1.056-1.184a3.19 3.19 0 0 1 1.628-.395c.444-.011.884.073 1.293.247.357.161.669.409.907.72.255.339.44.724.543 1.135.123.48.183.974.177 1.47a4.912 4.912 0 0 1-.384 2.072ZM91.958 10.867c-.37.099-.722.252-1.046.454-.337.21-.648.458-.928.74-.046.046-.091.098-.138.147v-1.47l-2.012.297V21h2.012v-7.455a5.037 5.037 0 0 1 1.076-.576c.204-.08.41-.149.621-.208a4.233 4.233 0 0 1 1.382-.148l.236-1.855a3.772 3.772 0 0 0-1.203.109ZM100.522 19.352c-.093.02-.195.04-.307.06l-.335.058c-.107.02-.216.033-.325.04-.106.006-.205.01-.296.01a1.997 1.997 0 0 1-.878-.178 1.276 1.276 0 0 1-.563-.523 1.667 1.667 0 0 1-.197-.839v-5.465h2.782l.217-1.579h-3V7.82l-2.012.71v2.407h-1.52l-.217 1.579h1.737v5.88c-.009.392.051.783.178 1.154.101.294.259.565.463.8.188.208.416.376.671.492.261.12.536.207.819.257.28.052.564.078.849.08.21 0 .417-.007.621-.02a6.737 6.737 0 0 0 1.046-.149c.152-.033.279-.062.385-.088l.118-1.638c-.076.03-.156.053-.236.07Z"/></svg>
